X:1
T:Title
%%score ( 1 2 ) ( 3 4 )
L:1/8
Q:1/4=180
M:6/4
K:Bb
V:1 treble nm="Grand Piano, Soprano"
V:2 treble 
V:3 bass nm="Choir Pad, Who Shall Abide, M. Moody"
V:4 bass 
V:1
 [DF]2 [_D=E]2 [=DF]2 [_EG]4 [DF]2 | [DF]6 .[DB]6 | [GB]2 [FA]2 [EG]2 [GB]4 [EG]2 | [DF]12 | %4
w: By~William~Augustine~Ogden * * * *||||
 [DF]2 [_D=E]2 [=DF]2 [_EG]4 [DF]2 | [DB]6 .[Fd]6 | [Fc]2 [FA]2 F2 [FA]4 [=EG]2 | F12 | %8
w: ||||
 [Ec]6- [Ec]2 [DB]2 [CA]2 | [DB]12 | e6 .e6 | d12 | [Fd]2 [Ec]2 [DB]2 [GB]2 [FA]2 [EG]2 | %13
w: |||||
 [DF]4 [_D=E]2 [=DF]4 [DF]2 | [EG]2 [FA]2 [FB]2 [Ec]4 [FA]2 | [DB]12 |] %16
w: |||
V:2
 x12 | x12 | x12 | x12 | x12 | x12 | x12 | x12 | x12 | x12 | A2 A2 A2 A2- [Ad]2 c2 | B2 F2 G2 .F6 | %12
 x12 | x12 | x12 | x12 |] %16
V:3
 [B,,B,]2 [B,,B,]2 [B,,B,]2 [B,,B,]4 [B,,B,]2 | [B,,B,]6 .[B,,B,]6 | %2
 [E,B,]2 [E,B,]2 [E,B,]2 [E,B,]4 [E,B,]2 | [B,,B,]12 | %4
 [B,,B,]2 [B,,B,]2 [B,,B,]2 [B,,B,]4 [B,,B,]2 | [B,,B,]6 .[B,,B,]6 | %6
 [C,A,]2 [C,C]2 [C,A,]2 [C,C]4 [C,B,]2 | [F,A,]12 | [F,A,]2 [F,A,]2 [F,A,]2 .[F,A,]6 | %9
 [B,,B,]2 [B,,F,]2 [B,,G,]2 .[B,,F,]6 | C6 .C6 | B,12 | %12
 [B,,B,]2 [B,,B,]2 [B,,B,]2 [E,B,]2 [E,B,]2 [E,B,]2 | [B,,B,]4 [B,,B,]2 [B,,B,]4 [B,,B,]2 | %14
 [E,B,]2 [E,C]2 [D,B,]2 [C,G,]4 F,2 | [B,,F,]12 |] %16
V:4
 x12 | x12 | x12 | x12 | x12 | x12 | x12 | x12 | x12 | x12 | F,2 F,2 F,2 F,2- [F,B,]2 A,2 | %11
 B,,2 B,,2 B,,2 .B,,6 | x12 | x12 | x12 | x12 |] %16

